icons/1_Primary/Upbit.svg

<svg width="1024" height="1024" fill="none" xmlns="http://www.w3.org/2000/svg"><g clip-path="url(#a)"><path d="M512 1024c282.77 0 512-229.23 512-512S794.77 0 512 0 0 229.23 0 512s229.23 512 512 512Z" fill="#728DBE"/><path d="M615.9 484.23H569l13.53-41.63h-41.64L495.8 581.39h86.67a46.265 46.265 0 0 0 44-32l11.34-34.82a23.153 23.153 0 0 0-21.91-30.38v.04Zm-19.37 29.18-9.38 28.85a23.132 23.132 0 0 1-22 16H545l16.54-50.9h30.64a4.606 4.606 0 0 1 4.553 3.86 4.605 4.605 0 0 1-.153 2.14l-.05.05Zm92.41-70.81-9 27.77h41.65l9-27.77h-41.65Zm-45.1 138.79h41.65L717 484.23h-41.59l-31.57 97.16Zm135.65-74h28l7.51-23.16h-28l13.53-41.63h-41.65l-35.25 108.5a23.143 23.143 0 0 0 3.291 20.744 23.157 23.157 0 0 0 18.709 9.546h46.22l7.53-23.13h-30.1a4.587 4.587 0 0 1-3.698-1.896 4.587 4.587 0 0 1-.652-4.104l14.56-44.87ZM327.88 491l45.54-48.44h-48.78l-37.58 115.7h-31.25a4.639 4.639 0 0 1-3.676-1.912 4.63 4.63 0 0 1-.674-4.088L287 442.61h-41.61l-35.25 108.54a23.108 23.108 0 0 0 11.502 27.738 23.114 23.114 0 0 0 10.498 2.512h89.06l31.55-97.16-24.87 6.76Zm154.06-48.44H386.2L400.47 491 380 484.26l-31.68 97.14H390l15-46.26h45a46.265 46.265 0 0 0 44-32l9.86-30.31a23.125 23.125 0 0 0-3.301-20.725 23.126 23.126 0 0 0-18.699-9.525l.08-.02Zm-19.32 29.16L454.74 496a23.132 23.132 0 0 1-22 16h-20.19l15-46.26h30.66a4.585 4.585 0 0 1 4.534 3.865 4.586 4.586 0 0 1-.164 2.135l.04-.02Z" fill="#fff"/></g><defs><clipPath id="a"><path fill="#fff" d="M0 0h1024v1024H0z"/></clipPath></defs></svg>

<svg width="1024" height="1024" viewBox="0 0 1024 1024" fill="none" xmlns="http://www.w3.org/2000/svg">
<g clip-path="url(#clip0_2_3798)">
<path d="M512 1024C794.77 1024 1024 794.77 1024 512C1024 229.23 794.77 0 512 0C229.23 0 0 229.23 0 512C0 794.77 229.23 1024 512 1024Z" fill="#728DBE"/>
<path d="M615.9 484.23H569L582.53 442.6H540.89L495.8 581.39H582.47C592.244 581.388 601.767 578.291 609.672 572.542C617.576 566.793 623.457 558.688 626.47 549.39L637.81 514.57C638.951 511.099 639.254 507.408 638.696 503.798C638.137 500.188 636.731 496.761 634.594 493.798C632.457 490.835 629.65 488.42 626.401 486.75C623.151 485.08 619.553 484.203 615.9 484.19V484.23ZM596.53 513.41L587.15 542.26C585.644 546.909 582.703 550.961 578.751 553.836C574.798 556.71 570.037 558.259 565.15 558.26H545L561.54 507.36H592.18C592.905 507.359 593.62 507.529 594.266 507.856C594.913 508.184 595.474 508.659 595.902 509.243C596.331 509.828 596.616 510.505 596.733 511.22C596.851 511.936 596.799 512.668 596.58 513.36L596.53 513.41ZM688.94 442.6L679.94 470.37H721.59L730.59 442.6H688.94ZM643.84 581.39H685.49L717 484.23H675.41L643.84 581.39ZM779.49 507.39H807.49L815 484.23H787L800.53 442.6H758.88L723.63 551.1C722.504 554.572 722.215 558.261 722.787 561.866C723.359 565.472 724.776 568.891 726.921 571.844C729.066 574.797 731.879 577.202 735.13 578.861C738.382 580.52 741.98 581.386 745.63 581.39H791.85L799.38 558.26H769.28C768.558 558.257 767.847 558.084 767.204 557.754C766.562 557.425 766.006 556.948 765.582 556.364C765.158 555.779 764.878 555.103 764.765 554.39C764.652 553.677 764.708 552.947 764.93 552.26L779.49 507.39ZM327.88 491L373.42 442.56H324.64L287.06 558.26H255.81C255.091 558.248 254.384 558.07 253.746 557.738C253.108 557.406 252.556 556.93 252.134 556.348C251.712 555.766 251.431 555.093 251.314 554.383C251.197 553.674 251.247 552.947 251.46 552.26L287 442.61H245.39L210.14 551.15C209.013 554.62 208.723 558.307 209.295 561.911C209.867 565.514 211.283 568.931 213.43 571.882C215.576 574.833 218.39 577.234 221.642 578.888C224.894 580.542 228.491 581.403 232.14 581.4H321.2L352.75 484.24L327.88 491ZM481.94 442.56H386.2L400.47 491L380 484.26L348.32 581.4H390L405 535.14H450C459.774 535.138 469.297 532.041 477.202 526.292C485.106 520.543 490.987 512.438 494 503.14L503.86 472.83C504.983 469.36 505.269 465.673 504.695 462.071C504.122 458.47 502.704 455.055 500.559 452.105C498.414 449.156 495.602 446.755 492.352 445.1C489.102 443.444 485.507 442.581 481.86 442.58L481.94 442.56ZM462.62 471.72L454.74 496C453.234 500.649 450.293 504.701 446.341 507.576C442.388 510.45 437.627 511.999 432.74 512H412.55L427.55 465.74H458.21C458.934 465.739 459.647 465.91 460.293 466.238C460.938 466.566 461.496 467.042 461.922 467.627C462.348 468.212 462.63 468.89 462.744 469.605C462.859 470.319 462.802 471.051 462.58 471.74L462.62 471.72Z" fill="white"/>
</g>
<defs>
<clipPath id="clip0_2_3798">
<rect width="1024" height="1024" fill="white"/>
</clipPath>
</defs>
</svg>
